X: 110
M: 2/4
L: 1/8
K: D
|:\
|:\
afdB | gecA | fdBf | f2e2 |\
afdB | gecA | fdAc | d2D2 :|

